build/img/img-bullet-5.svg

<?xml version="1.0" encoding="UTF-8"?>
<svg width="56px" height="67px" viewBox="0 0 56 67" version="1.1" xmlns="http://www.w3.org/2000/svg" xmlns:xlink="http://www.w3.org/1999/xlink">
    <!-- Generator: Sketch 47.1 (45422) - http://www.bohemiancoding.com/sketch -->
    <title>bullet-5</title>
    <desc>Created with Sketch.</desc>
    <defs></defs>
    <g id="Symbols" stroke="none" stroke-width="1" fill="none" fill-rule="evenodd">
        <g id="bullet-5" fill="#FFFFFF">
            <path d="M45.6026316,0.919879768 L0.942836257,0.919879768 L0.942836257,51.1445896 C0.942836257,55.880908 4.7877193,59.7291667 9.51988304,59.82784 L55.3627193,65.6495647 L55.3627193,10.6885365 L45.6026316,0.919879768 Z M45.9969786,3.48538557 L52.7994639,10.2938433 L45.9969786,10.2938433 L45.9969786,3.48538557 Z M13.5619396,58.841107 C16.0266082,57.5583541 17.8011696,55.0915216 18.1955166,52.2299959 L48.2644737,63.2814055 L13.5619396,58.841107 Z M16.7167154,50.1578566 L16.7167154,51.2432629 C16.7167154,55.1901949 13.4633528,58.4464138 9.51988304,58.4464138 C5.57641326,58.4464138 2.42163743,55.1901949 2.42163743,51.2432629 L2.42163743,2.39997927 L44.5181774,2.39997927 L44.5181774,11.7739428 L53.8839181,11.7739428 L53.8839181,63.774772 L16.7167154,50.1578566 Z" id="Shape" fill-rule="nonzero"></path>
            <path d="M19.1864583,38.2430556 L19.1864583,23.5333333 L15.7982639,23.5333333 L12.6579861,26.2604167 L12.6579861,29.8758681 L15.7982639,27.1487847 L15.7982639,38.2430556 L19.1864583,38.2430556 Z M33.1472656,33.7805556 C33.1472656,36.8175347 30.8540364,38.3670139 28.4161892,38.3670139 C25.978342,38.3670139 23.6851128,36.8175347 23.6851128,33.7805556 L23.6851128,27.9958333 C23.6851128,24.9588542 25.978342,23.409375 28.4161892,23.409375 C30.8540364,23.409375 33.1472656,24.9588542 33.1472656,27.9958333 L33.1472656,33.7805556 Z M29.7590711,33.8012153 L29.7590711,27.9958333 C29.7590711,26.9628472 29.1392795,26.4670139 28.4161892,26.4670139 C27.6930989,26.4670139 27.0733072,26.9628472 27.0733072,27.9958333 L27.0733072,33.8012153 C27.0733072,34.8342014 27.6930989,35.309375 28.4161892,35.309375 C29.1392795,35.309375 29.7590711,34.8342014 29.7590711,33.8012153 Z M51.3226562,35.4953125 C51.3226562,37.4579861 49.8351562,38.3670139 48.2030381,38.3670139 C46.57092,38.3670139 45.08342,37.4579861 45.08342,35.4953125 L45.08342,33.5326389 C45.08342,31.5699653 46.57092,30.6609375 48.2030381,30.6609375 C49.8351562,30.6609375 51.3226562,31.5699653 51.3226562,33.5326389 L51.3226562,35.4953125 Z M41.7158853,28.24375 C41.7158853,30.2064236 40.2283853,31.1154514 38.5962673,31.1154514 C36.9641492,31.1154514 35.4766492,30.2064236 35.4766492,28.24375 L35.4766492,26.2810764 C35.4766492,24.3184028 36.9641492,23.409375 38.5962673,23.409375 C40.2283853,23.409375 41.7158853,24.3184028 41.7158853,26.2810764 L41.7158853,28.24375 Z M48.2030381,23.5333333 L41.1993923,38.2430556 L38.5962673,38.2430556 L45.5999131,23.5333333 L48.2030381,23.5333333 Z M39.3193575,28.1611111 L39.3193575,26.3637153 C39.3193575,25.7645833 39.0094617,25.5579861 38.5962673,25.5579861 C38.1830728,25.5579861 37.873177,25.7645833 37.873177,26.3637153 L37.873177,28.1611111 C37.873177,28.7602431 38.1830728,28.9668403 38.5962673,28.9668403 C39.0094617,28.9668403 39.3193575,28.7602431 39.3193575,28.1611111 Z M48.9261284,35.4126736 L48.9261284,33.6152778 C48.9261284,33.0161458 48.6162325,32.8095486 48.2030381,32.8095486 C47.7898437,32.8095486 47.4799478,33.0161458 47.4799478,33.6152778 L47.4799478,35.4126736 C47.4799478,36.0118056 47.7898437,36.2184028 48.2030381,36.2184028 C48.6162325,36.2184028 48.9261284,36.0118056 48.9261284,35.4126736 Z" id="10%"></path>
        </g>
    </g>
</svg>

<svg width="56" height="67" viewBox="0 0 56 67" xmlns="http://www.w3.org/2000/svg"><title>bullet-5</title><g id="Symbols" fill="none" fill-rule="evenodd"><g id="bullet-5" fill="#FFF"><path d="M45.603.92H.943v50.225c0 4.736 3.845 8.584 8.577 8.683l45.843 5.822V10.689l-9.76-9.77zm.394 2.565l6.802 6.809h-6.802V3.485zM13.562 58.841c2.465-1.283 4.24-3.75 4.634-6.611l30.068 11.051-34.702-4.44zm3.155-8.683v1.085c0 3.947-3.254 7.203-7.197 7.203-3.944 0-7.098-3.256-7.098-7.203V2.4h42.096v9.374h9.366v52L16.717 50.159z" id="Shape" fill-rule="nonzero"/><path d="M19.186 38.243v-14.71h-3.388l-3.14 2.727v3.616l3.14-2.727v11.094h3.388zm13.961-4.462c0 3.037-2.293 4.586-4.73 4.586-2.439 0-4.732-1.55-4.732-4.586v-5.785c0-3.037 2.293-4.587 4.731-4.587 2.438 0 4.731 1.55 4.731 4.587v5.785zm-3.388.02v-5.805c0-1.033-.62-1.529-1.343-1.529s-1.343.496-1.343 1.529V33.8c0 1.033.62 1.508 1.343 1.508s1.343-.475 1.343-1.508zm21.564 1.694c0 1.963-1.488 2.872-3.12 2.872-1.632 0-3.12-.909-3.12-2.872v-1.962c0-1.963 1.488-2.872 3.12-2.872 1.632 0 3.12.909 3.12 2.872v1.962zm-9.607-7.251c0 1.962-1.488 2.871-3.12 2.871-1.632 0-3.12-.909-3.12-2.871V26.28c0-1.963 1.488-2.872 3.12-2.872 1.632 0 3.12.91 3.12 2.872v1.963zm6.487-4.71l-7.004 14.71h-2.603l7.004-14.71h2.603zm-8.884 4.627v-1.797c0-.6-.31-.806-.723-.806s-.723.207-.723.806v1.797c0 .6.31.806.723.806s.723-.207.723-.806zm9.607 7.252v-1.798c0-.599-.31-.805-.723-.805s-.723.206-.723.805v1.798c0 .599.31.805.723.805s.723-.206.723-.805z" id="10%"/></g></g></svg>
